icon/mi/racetrack.svg

<?xml version="1.0" encoding="UTF-8"?>
<svg xmlns="http://www.w3.org/2000/svg" viewBox="0 0 15 15" id="racetrack" height="1em" width="1em">
  <path d="M4.99321 1.58228C5.03861 1.30989 4.8546 1.05228 4.58222 1.00688C4.30983 0.961484 4.05222 1.14549 4.00682 1.41788L2.00682 13.4179C1.96142 13.6903 2.14543 13.9479 2.41782 13.9933C2.6902 14.0387 2.94782 13.8547 2.99321 13.5823L3.6632 9.56238C4.46947 9.67976 5.3398 9.7187 6.026 10.2C6.45057 10.505 6.94151 10.7047 7.45839 10.7828C8.424 10.9286 9.28807 10.3976 10.242 10.549L11.531 10.743C11.7908 10.7822 12.0609 10.5828 12.1 10.323L12.984 4.38899L12.988 4.38499C13.0241 4.12469 12.8213 3.85686 12.561 3.82099L11.272 3.62699C10.3092 3.48421 9.44342 3.9997 8.48942 3.85618C8.06155 3.79181 7.65443 3.62915 7.3 3.38099C6.56128 2.86385 5.68119 2.77814 4.81426 2.656L4.99321 1.58228ZM4.40351 5.12049L4.73218 3.14849C5.33161 3.22962 5.96556 3.27693 6.521 3.51699L6.22626 5.48223C5.65576 5.24949 5.01279 5.2037 4.40351 5.12049ZM3.74549 9.0686L4.07436 7.09542C4.69451 7.18147 5.35159 7.22405 5.933 7.46299L6.23273 5.48673C6.89067 5.75614 7.3918 6.21952 8.126 6.32799L8.426 4.34799C9.16402 4.45947 9.77459 4.17131 10.484 4.11399L10.184 6.07999C9.47389 6.1406 8.85956 6.44062 8.124 6.32999L7.83802 8.30784C7.10186 8.19874 6.59996 7.73286 5.939 7.46399L5.639 9.43999C5.04421 9.20148 4.3764 9.15882 3.74549 9.0686ZM7.83898 8.30813C8.57282 8.41936 9.19002 8.11708 9.9 8.05799L10.184 6.07999C10.8385 6.01968 11.5087 6.19133 12.152 6.28899L11.872 8.26499C11.2277 8.16793 10.5563 7.99624 9.901 8.05799L9.601 10.034C8.89229 10.0817 8.26589 10.3943 7.539 10.284L7.83898 8.30813Z"/>
</svg>

<svg xmlns="http://www.w3.org/2000/svg" width="15" height="15"><path d="M4.993 1.582a.5.5 0 1 0-.986-.164l-2 12a.5.5 0 1 0 .986.164l.67-4.02c.806.118 1.677.157 2.363.638a3.3 3.3 0 0 0 1.432.583c.966.146 1.83-.385 2.784-.234l1.289.194c.26.04.53-.16.569-.42l.884-5.934.004-.004a.518.518 0 0 0-.427-.564l-1.289-.194c-.963-.143-1.829.373-2.783.23A2.8 2.8 0 0 1 7.3 3.38c-.739-.517-1.619-.603-2.486-.725l.18-1.074Zm-.59 3.538.33-1.972c.599.082 1.233.129 1.788.369l-.295 1.965c-.57-.233-1.213-.278-1.822-.362ZM3.746 9.07l.33-1.974c.62.086 1.277.13 1.858.368l.3-1.976c.658.27 1.159.733 1.893.841l.3-1.98c.738.111 1.349-.177 2.058-.234l-.3 1.966c-.71.06-1.324.36-2.06.25l-.286 1.978c-.736-.11-1.238-.575-1.899-.844l-.3 1.976c-.595-.239-1.263-.281-1.894-.371Zm4.094-.76c.734.11 1.351-.192 2.061-.251l.284-1.978c.655-.06 1.325.111 1.968.209l-.28 1.976c-.644-.097-1.316-.269-1.971-.207l-.3 1.976c-.709.048-1.335.36-2.062.25l.3-1.976Z"/></svg>
